X:0617
T:Lord MacDonald's Reel.
M:C|
L:1/8
Q:1/2=104
I: :: :: :: ||
Z:Jack Campin * www.campin.me.uk * 2009
K:G
B| d3  e   d<Bg>B| dBgB    a(AA)B| d^cde    dBgB   |(A/B/)c BA BGG  :|
B| DG`BG   AGBG  | DGBG    AGAB  | DGBG     AGBG   | defc      BGGG  |
   DG`BG   AGBG  | DGBG    A>GEc | BAGF     GFED   | EFGA      BGG  ||
B|Td3  e   d<Bg>B| dBgB    a(AA)B| d^cde    dBgB   | A/B/c  BA BGG  :|
g|(dg)bg (Tag)bg |(dg)bg (Tag)eg |(dg)bg  (Tag)bg  | d>edc     B(GG)g|
  (dg)bg (Tag)bg |(dg)bg  (ag)ea |(ba).g.f (gf).e.d| efga      bgg  |]
<end>
<start>
